X: 20075
T: Jimmy McHugh
R: jig
M: 6/8
K: Dmajor
d/B/|AFD FED|=cBc GE=C|DFA dcd|f/g/af gfe|
f/g/af gfe|dcd AFD|=CEG cCE|Ddc d2:|
e|f/g/af gfe|dcd AFD|=cBc GE=C|E=F^F GE=C|
FEF GFG|Aag fed|=cBc GE=C|Ddc d2:|

